images/50282867.svg

<?xml version="1.0" encoding="UTF-8"?>
<svg xmlns="http://www.w3.org/2000/svg" xmlns:xlink="http://www.w3.org/1999/xlink" width="300pt" height="300pt" viewBox="0 0 300 300" version="1.1">
<defs>
<g>
<symbol overflow="visible" id="glyph0-0">
<path style="stroke:none;" d="M 0.453125 1.59375 L 0.453125 -6.34375 L 4.953125 -6.34375 L 4.953125 1.59375 Z M 0.953125 1.09375 L 4.453125 1.09375 L 4.453125 -5.84375 L 0.953125 -5.84375 Z M 0.953125 1.09375 "/>
</symbol>
<symbol overflow="visible" id="glyph0-1">
<path style="stroke:none;" d="M 3.546875 -5.953125 C 2.898438 -5.953125 2.382812 -5.710938 2 -5.234375 C 1.625 -4.753906 1.4375 -4.101562 1.4375 -3.28125 C 1.4375 -2.445312 1.625 -1.789062 2 -1.3125 C 2.382812 -0.832031 2.898438 -0.59375 3.546875 -0.59375 C 4.191406 -0.59375 4.703125 -0.832031 5.078125 -1.3125 C 5.453125 -1.789062 5.640625 -2.445312 5.640625 -3.28125 C 5.640625 -4.101562 5.453125 -4.753906 5.078125 -5.234375 C 4.703125 -5.710938 4.191406 -5.953125 3.546875 -5.953125 Z M 3.546875 -6.6875 C 4.460938 -6.6875 5.195312 -6.375 5.75 -5.75 C 6.300781 -5.132812 6.578125 -4.3125 6.578125 -3.28125 C 6.578125 -2.238281 6.300781 -1.410156 5.75 -0.796875 C 5.195312 -0.179688 4.460938 0.125 3.546875 0.125 C 2.617188 0.125 1.878906 -0.179688 1.328125 -0.796875 C 0.773438 -1.410156 0.5 -2.238281 0.5 -3.28125 C 0.5 -4.3125 0.773438 -5.132812 1.328125 -5.75 C 1.878906 -6.375 2.617188 -6.6875 3.546875 -6.6875 Z M 3.546875 -6.6875 "/>
</symbol>
<symbol overflow="visible" id="glyph0-2">
<path style="stroke:none;" d="M 0.890625 -6.5625 L 2.078125 -6.5625 L 4.984375 -1.078125 L 4.984375 -6.5625 L 5.84375 -6.5625 L 5.84375 0 L 4.65625 0 L 1.75 -5.484375 L 1.75 0 L 0.890625 0 Z M 0.890625 -6.5625 "/>
</symbol>
<symbol overflow="visible" id="glyph0-3">
<path style="stroke:none;" d="M 0.890625 -6.5625 L 1.765625 -6.5625 L 1.765625 -3.875 L 5 -3.875 L 5 -6.5625 L 5.890625 -6.5625 L 5.890625 0 L 5 0 L 5 -3.125 L 1.765625 -3.125 L 1.765625 0 L 0.890625 0 Z M 0.890625 -6.5625 "/>
</symbol>
</g>
</defs>
<g id="surface18853">
<rect x="0" y="0" width="300" height="300" style="fill:rgb(100%,100%,100%);fill-opacity:1;stroke:none;"/>
<path style="fill:none;stroke-width:1.2;stroke-linecap:butt;stroke-linejoin:miter;stroke:rgb(100%,0%,0%);stroke-opacity:1;stroke-miterlimit:10;" d="M 207.960938 140.136719 L 215.257812 143.898438 "/>
<path style="fill:none;stroke-width:1.2;stroke-linecap:butt;stroke-linejoin:miter;stroke:rgb(0%,0%,0%);stroke-opacity:1;stroke-miterlimit:10;" d="M 215.257812 143.898438 L 222.550781 147.65625 "/>
<path style="fill:none;stroke-width:1.2;stroke-linecap:butt;stroke-linejoin:miter;stroke:rgb(100%,0%,0%);stroke-opacity:1;stroke-miterlimit:10;" d="M 207.960938 140.136719 L 201.058594 144.574219 "/>
<path style="fill:none;stroke-width:1.2;stroke-linecap:butt;stroke-linejoin:miter;stroke:rgb(0%,0%,0%);stroke-opacity:1;stroke-miterlimit:10;" d="M 201.058594 144.574219 L 194.15625 149.011719 "/>
<path style=" stroke:none;fill-rule:nonzero;fill:rgb(100%,100%,100%);fill-opacity:1;" d="M 203.960938 134.636719 L 211.960938 134.636719 L 211.960938 145.636719 L 203.960938 145.636719 Z M 203.960938 134.636719 "/>
<g style="fill:rgb(100%,0%,0%);fill-opacity:1;">
  <use xlink:href="#glyph0-1" x="203.960938" y="143.299805"/>
</g>
<path style="fill:none;stroke-width:1.2;stroke-linecap:butt;stroke-linejoin:miter;stroke:rgb(0%,0%,0%);stroke-opacity:1;stroke-miterlimit:10;" d="M 222.550781 147.65625 L 236.355469 138.78125 "/>
<path style="fill:none;stroke-width:1.2;stroke-linecap:butt;stroke-linejoin:miter;stroke:rgb(0%,0%,0%);stroke-opacity:1;stroke-miterlimit:10;" d="M 236.355469 138.78125 L 243.648438 142.542969 "/>
<path style="fill:none;stroke-width:1.2;stroke-linecap:butt;stroke-linejoin:miter;stroke:rgb(0%,0%,100%);stroke-opacity:1;stroke-miterlimit:10;" d="M 243.648438 142.542969 L 250.945312 146.300781 "/>
<path style="fill:none;stroke-width:1.2;stroke-linecap:butt;stroke-linejoin:miter;stroke:rgb(0%,0%,0%);stroke-opacity:1;stroke-miterlimit:10;" d="M 239.585938 136.101562 L 245.417969 139.109375 "/>
<path style="fill:none;stroke-width:1.2;stroke-linecap:butt;stroke-linejoin:miter;stroke:rgb(0%,0%,100%);stroke-opacity:1;stroke-miterlimit:10;" d="M 245.417969 139.109375 L 251.253906 142.117188 "/>
<path style="fill:none;stroke-width:1.2;stroke-linecap:butt;stroke-linejoin:miter;stroke:rgb(0%,0%,0%);stroke-opacity:1;stroke-miterlimit:10;" d="M 235.574219 122.390625 L 236.355469 138.78125 "/>
<path style="fill:none;stroke-width:1.2;stroke-linecap:butt;stroke-linejoin:miter;stroke:rgb(0%,0%,100%);stroke-opacity:1;stroke-miterlimit:10;" d="M 250.945312 146.300781 L 257.847656 141.863281 "/>
<path style="fill:none;stroke-width:1.2;stroke-linecap:butt;stroke-linejoin:miter;stroke:rgb(0%,0%,0%);stroke-opacity:1;stroke-miterlimit:10;" d="M 257.847656 141.863281 L 264.75 137.425781 "/>
<path style=" stroke:none;fill-rule:nonzero;fill:rgb(100%,100%,100%);fill-opacity:1;" d="M 247.945312 140.800781 L 254.945312 140.800781 L 254.945312 151.800781 L 247.945312 151.800781 Z M 247.945312 140.800781 "/>
<g style="fill:rgb(0%,0%,100%);fill-opacity:1;">
  <use xlink:href="#glyph0-2" x="247.945312" y="149.463867"/>
</g>
<path style="fill:none;stroke-width:1.2;stroke-linecap:butt;stroke-linejoin:miter;stroke:rgb(0%,0%,0%);stroke-opacity:1;stroke-miterlimit:10;" d="M 264.75 137.425781 L 263.96875 121.03125 "/>
<path style="fill:none;stroke-width:1.2;stroke-linecap:butt;stroke-linejoin:miter;stroke:rgb(0%,0%,0%);stroke-opacity:1;stroke-miterlimit:10;" d="M 260.816406 135.972656 L 260.1875 122.855469 "/>
<path style="fill:none;stroke-width:1.2;stroke-linecap:butt;stroke-linejoin:miter;stroke:rgb(0%,0%,0%);stroke-opacity:1;stroke-miterlimit:10;" d="M 263.96875 121.03125 L 249.378906 113.515625 "/>
<path style="fill:none;stroke-width:1.2;stroke-linecap:butt;stroke-linejoin:miter;stroke:rgb(0%,0%,0%);stroke-opacity:1;stroke-miterlimit:10;" d="M 249.378906 113.515625 L 235.574219 122.390625 "/>
<path style="fill:none;stroke-width:1.2;stroke-linecap:butt;stroke-linejoin:miter;stroke:rgb(0%,0%,0%);stroke-opacity:1;stroke-miterlimit:10;" d="M 250.085938 117.652344 L 239.042969 124.75 "/>
<path style="fill:none;stroke-width:1.2;stroke-linecap:butt;stroke-linejoin:miter;stroke:rgb(0%,0%,0%);stroke-opacity:1;stroke-miterlimit:10;" d="M 194.15625 149.011719 L 179.566406 141.496094 "/>
<path style="fill:none;stroke-width:1.2;stroke-linecap:butt;stroke-linejoin:miter;stroke:rgb(0%,0%,0%);stroke-opacity:1;stroke-miterlimit:10;" d="M 190.929688 151.695312 L 179.257812 145.679688 "/>
<path style="fill:none;stroke-width:1.2;stroke-linecap:butt;stroke-linejoin:miter;stroke:rgb(0%,0%,0%);stroke-opacity:1;stroke-miterlimit:10;" d="M 194.941406 165.40625 L 194.15625 149.011719 "/>
<path style="fill:none;stroke-width:1.2;stroke-linecap:butt;stroke-linejoin:miter;stroke:rgb(0%,0%,0%);stroke-opacity:1;stroke-miterlimit:10;" d="M 179.566406 141.496094 L 165.761719 150.371094 "/>
<path style="fill:none;stroke-width:1.2;stroke-linecap:butt;stroke-linejoin:miter;stroke:rgb(0%,0%,0%);stroke-opacity:1;stroke-miterlimit:10;" d="M 165.761719 150.371094 L 166.546875 166.761719 "/>
<path style="fill:none;stroke-width:1.2;stroke-linecap:butt;stroke-linejoin:miter;stroke:rgb(0%,0%,0%);stroke-opacity:1;stroke-miterlimit:10;" d="M 169.699219 151.824219 L 170.324219 164.9375 "/>
<path style="fill:none;stroke-width:1.2;stroke-linecap:butt;stroke-linejoin:miter;stroke:rgb(0%,0%,0%);stroke-opacity:1;stroke-miterlimit:10;" d="M 166.546875 166.761719 L 181.132812 174.28125 "/>
<path style="fill:none;stroke-width:1.2;stroke-linecap:butt;stroke-linejoin:miter;stroke:rgb(0%,0%,0%);stroke-opacity:1;stroke-miterlimit:10;" d="M 166.546875 166.761719 L 152.738281 175.636719 "/>
<path style="fill:none;stroke-width:1.2;stroke-linecap:butt;stroke-linejoin:miter;stroke:rgb(0%,0%,0%);stroke-opacity:1;stroke-miterlimit:10;" d="M 181.132812 174.28125 L 194.941406 165.40625 "/>
<path style="fill:none;stroke-width:1.2;stroke-linecap:butt;stroke-linejoin:miter;stroke:rgb(0%,0%,0%);stroke-opacity:1;stroke-miterlimit:10;" d="M 180.425781 170.144531 L 191.472656 163.046875 "/>
<path style="fill:none;stroke-width:1.2;stroke-linecap:butt;stroke-linejoin:miter;stroke:rgb(0%,0%,0%);stroke-opacity:1;stroke-miterlimit:10;" d="M 150.8125 175.730469 L 151.203125 183.925781 "/>
<path style="fill:none;stroke-width:1.2;stroke-linecap:butt;stroke-linejoin:miter;stroke:rgb(100%,0%,0%);stroke-opacity:1;stroke-miterlimit:10;" d="M 151.203125 183.925781 L 151.59375 192.121094 "/>
<path style="fill:none;stroke-width:1.2;stroke-linecap:butt;stroke-linejoin:miter;stroke:rgb(0%,0%,0%);stroke-opacity:1;stroke-miterlimit:10;" d="M 154.667969 175.546875 L 155.058594 183.742188 "/>
<path style="fill:none;stroke-width:1.2;stroke-linecap:butt;stroke-linejoin:miter;stroke:rgb(100%,0%,0%);stroke-opacity:1;stroke-miterlimit:10;" d="M 155.058594 183.742188 L 155.453125 191.9375 "/>
<path style="fill:none;stroke-width:1.2;stroke-linecap:butt;stroke-linejoin:miter;stroke:rgb(0%,0%,0%);stroke-opacity:1;stroke-miterlimit:10;" d="M 152.738281 175.636719 L 145.445312 171.878906 "/>
<path style="fill:none;stroke-width:1.2;stroke-linecap:butt;stroke-linejoin:miter;stroke:rgb(0%,0%,100%);stroke-opacity:1;stroke-miterlimit:10;" d="M 145.445312 171.878906 L 138.152344 168.117188 "/>
<path style=" stroke:none;fill-rule:nonzero;fill:rgb(100%,100%,100%);fill-opacity:1;" d="M 149.523438 186.53125 L 157.523438 186.53125 L 157.523438 197.53125 L 149.523438 197.53125 Z M 149.523438 186.53125 "/>
<g style="fill:rgb(100%,0%,0%);fill-opacity:1;">
  <use xlink:href="#glyph0-1" x="149.523438" y="195.194336"/>
</g>
<path style="fill:none;stroke-width:1.2;stroke-linecap:butt;stroke-linejoin:miter;stroke:rgb(0%,0%,100%);stroke-opacity:1;stroke-miterlimit:10;" d="M 138.152344 168.117188 L 131.25 172.554688 "/>
<path style="fill:none;stroke-width:1.2;stroke-linecap:butt;stroke-linejoin:miter;stroke:rgb(0%,0%,0%);stroke-opacity:1;stroke-miterlimit:10;" d="M 131.25 172.554688 L 124.347656 176.992188 "/>
<path style=" stroke:none;fill-rule:nonzero;fill:rgb(100%,100%,100%);fill-opacity:1;" d="M 131.152344 162.617188 L 145.152344 162.617188 L 145.152344 173.617188 L 131.152344 173.617188 Z M 131.152344 162.617188 "/>
<g style="fill:rgb(0%,0%,100%);fill-opacity:1;">
  <use xlink:href="#glyph0-2" x="131.152344" y="171.280273"/>
  <use xlink:href="#glyph0-3" x="138.129883" y="171.280273"/>
</g>
<path style="fill:none;stroke-width:1.2;stroke-linecap:butt;stroke-linejoin:miter;stroke:rgb(0%,0%,0%);stroke-opacity:1;stroke-miterlimit:10;" d="M 124.347656 176.992188 L 109.757812 169.472656 "/>
<path style="fill:none;stroke-width:1.2;stroke-linecap:butt;stroke-linejoin:miter;stroke:rgb(0%,0%,0%);stroke-opacity:1;stroke-miterlimit:10;" d="M 121.117188 179.671875 L 109.449219 173.660156 "/>
<path style="fill:none;stroke-width:1.2;stroke-linecap:butt;stroke-linejoin:miter;stroke:rgb(0%,0%,0%);stroke-opacity:1;stroke-miterlimit:10;" d="M 125.128906 193.386719 L 124.347656 176.992188 "/>
<path style="fill:none;stroke-width:1.2;stroke-linecap:butt;stroke-linejoin:miter;stroke:rgb(0%,0%,0%);stroke-opacity:1;stroke-miterlimit:10;" d="M 109.757812 169.472656 L 95.953125 178.347656 "/>
<path style="fill:none;stroke-width:1.2;stroke-linecap:butt;stroke-linejoin:miter;stroke:rgb(0%,0%,0%);stroke-opacity:1;stroke-miterlimit:10;" d="M 95.953125 178.347656 L 88.65625 174.589844 "/>
<path style="fill:none;stroke-width:1.2;stroke-linecap:butt;stroke-linejoin:miter;stroke:rgb(0%,0%,100%);stroke-opacity:1;stroke-miterlimit:10;" d="M 88.65625 174.589844 L 81.363281 170.832031 "/>
<path style="fill:none;stroke-width:1.2;stroke-linecap:butt;stroke-linejoin:miter;stroke:rgb(0%,0%,0%);stroke-opacity:1;stroke-miterlimit:10;" d="M 95.953125 178.347656 L 96.734375 194.742188 "/>
<path style="fill:none;stroke-width:1.2;stroke-linecap:butt;stroke-linejoin:miter;stroke:rgb(0%,0%,0%);stroke-opacity:1;stroke-miterlimit:10;" d="M 99.886719 179.804688 L 100.515625 192.917969 "/>
<path style="fill:none;stroke-width:1.2;stroke-linecap:butt;stroke-linejoin:miter;stroke:rgb(0%,0%,100%);stroke-opacity:1;stroke-miterlimit:10;" d="M 81.363281 170.832031 L 80.972656 162.632812 "/>
<path style="fill:none;stroke-width:1.2;stroke-linecap:butt;stroke-linejoin:miter;stroke:rgb(0%,0%,0%);stroke-opacity:1;stroke-miterlimit:10;" d="M 80.972656 162.632812 L 80.582031 154.4375 "/>
<path style=" stroke:none;fill-rule:nonzero;fill:rgb(100%,100%,100%);fill-opacity:1;" d="M 74.363281 165.332031 L 88.363281 165.332031 L 88.363281 176.332031 L 74.363281 176.332031 Z M 74.363281 165.332031 "/>
<g style="fill:rgb(0%,0%,100%);fill-opacity:1;">
  <use xlink:href="#glyph0-2" x="74.363281" y="173.995117"/>
  <use xlink:href="#glyph0-3" x="81.34082" y="173.995117"/>
</g>
<path style="fill:none;stroke-width:1.2;stroke-linecap:butt;stroke-linejoin:miter;stroke:rgb(0%,0%,0%);stroke-opacity:1;stroke-miterlimit:10;" d="M 81.625 156.0625 L 88.527344 151.625 "/>
<path style="fill:none;stroke-width:1.2;stroke-linecap:butt;stroke-linejoin:miter;stroke:rgb(100%,0%,0%);stroke-opacity:1;stroke-miterlimit:10;" d="M 88.527344 151.625 L 95.429688 147.1875 "/>
<path style="fill:none;stroke-width:1.2;stroke-linecap:butt;stroke-linejoin:miter;stroke:rgb(0%,0%,0%);stroke-opacity:1;stroke-miterlimit:10;" d="M 79.535156 152.8125 L 86.441406 148.375 "/>
<path style="fill:none;stroke-width:1.2;stroke-linecap:butt;stroke-linejoin:miter;stroke:rgb(100%,0%,0%);stroke-opacity:1;stroke-miterlimit:10;" d="M 86.441406 148.375 L 93.34375 143.9375 "/>
<path style="fill:none;stroke-width:1.2;stroke-linecap:butt;stroke-linejoin:miter;stroke:rgb(0%,0%,0%);stroke-opacity:1;stroke-miterlimit:10;" d="M 80.582031 154.4375 L 65.992188 146.917969 "/>
<path style=" stroke:none;fill-rule:nonzero;fill:rgb(100%,100%,100%);fill-opacity:1;" d="M 90.386719 140.0625 L 98.386719 140.0625 L 98.386719 151.0625 L 90.386719 151.0625 Z M 90.386719 140.0625 "/>
<g style="fill:rgb(100%,0%,0%);fill-opacity:1;">
  <use xlink:href="#glyph0-1" x="90.386719" y="148.725586"/>
</g>
<path style="fill:none;stroke-width:1.2;stroke-linecap:butt;stroke-linejoin:miter;stroke:rgb(0%,0%,0%);stroke-opacity:1;stroke-miterlimit:10;" d="M 65.992188 146.917969 L 65.210938 130.527344 "/>
<path style="fill:none;stroke-width:1.2;stroke-linecap:butt;stroke-linejoin:miter;stroke:rgb(0%,0%,0%);stroke-opacity:1;stroke-miterlimit:10;" d="M 62.058594 145.464844 L 61.429688 132.347656 "/>
<path style="fill:none;stroke-width:1.2;stroke-linecap:butt;stroke-linejoin:miter;stroke:rgb(0%,0%,0%);stroke-opacity:1;stroke-miterlimit:10;" d="M 52.1875 155.792969 L 65.992188 146.917969 "/>
<path style="fill:none;stroke-width:1.2;stroke-linecap:butt;stroke-linejoin:miter;stroke:rgb(0%,0%,0%);stroke-opacity:1;stroke-miterlimit:10;" d="M 65.210938 130.527344 L 50.621094 123.007812 "/>
<path style="fill:none;stroke-width:1.2;stroke-linecap:butt;stroke-linejoin:miter;stroke:rgb(0%,0%,0%);stroke-opacity:1;stroke-miterlimit:10;" d="M 50.621094 123.007812 L 50.230469 114.808594 "/>
<path style="fill:none;stroke-width:1.2;stroke-linecap:butt;stroke-linejoin:miter;stroke:rgb(0%,0%,100%);stroke-opacity:1;stroke-miterlimit:10;" d="M 50.230469 114.808594 L 49.839844 106.613281 "/>
<path style="fill:none;stroke-width:1.2;stroke-linecap:butt;stroke-linejoin:miter;stroke:rgb(0%,0%,0%);stroke-opacity:1;stroke-miterlimit:10;" d="M 50.621094 123.007812 L 36.816406 131.882812 "/>
<path style="fill:none;stroke-width:1.2;stroke-linecap:butt;stroke-linejoin:miter;stroke:rgb(0%,0%,0%);stroke-opacity:1;stroke-miterlimit:10;" d="M 51.328125 127.144531 L 40.285156 134.242188 "/>
<path style="fill:none;stroke-width:1.2;stroke-linecap:butt;stroke-linejoin:miter;stroke:rgb(0%,0%,100%);stroke-opacity:1;stroke-miterlimit:10;" d="M 49.839844 106.613281 L 56.742188 102.175781 "/>
<path style="fill:none;stroke-width:1.2;stroke-linecap:butt;stroke-linejoin:miter;stroke:rgb(0%,0%,0%);stroke-opacity:1;stroke-miterlimit:10;" d="M 56.742188 102.175781 L 63.644531 97.738281 "/>
<path style="fill:none;stroke-width:1.2;stroke-linecap:butt;stroke-linejoin:miter;stroke:rgb(0%,0%,100%);stroke-opacity:1;stroke-miterlimit:10;" d="M 49.839844 106.613281 L 42.542969 102.855469 "/>
<path style="fill:none;stroke-width:1.2;stroke-linecap:butt;stroke-linejoin:miter;stroke:rgb(0%,0%,0%);stroke-opacity:1;stroke-miterlimit:10;" d="M 42.542969 102.855469 L 35.25 99.09375 "/>
<path style=" stroke:none;fill-rule:nonzero;fill:rgb(100%,100%,100%);fill-opacity:1;" d="M 46.839844 101.113281 L 53.839844 101.113281 L 53.839844 112.113281 L 46.839844 112.113281 Z M 46.839844 101.113281 "/>
<g style="fill:rgb(0%,0%,100%);fill-opacity:1;">
  <use xlink:href="#glyph0-2" x="46.839844" y="109.776367"/>
</g>
<path style="fill:none;stroke-width:1.2;stroke-linecap:butt;stroke-linejoin:miter;stroke:rgb(0%,0%,0%);stroke-opacity:1;stroke-miterlimit:10;" d="M 36.816406 131.882812 L 37.597656 148.273438 "/>
<path style="fill:none;stroke-width:1.2;stroke-linecap:butt;stroke-linejoin:miter;stroke:rgb(0%,0%,0%);stroke-opacity:1;stroke-miterlimit:10;" d="M 37.597656 148.273438 L 52.1875 155.792969 "/>
<path style="fill:none;stroke-width:1.2;stroke-linecap:butt;stroke-linejoin:miter;stroke:rgb(0%,0%,0%);stroke-opacity:1;stroke-miterlimit:10;" d="M 40.828125 145.59375 L 52.496094 151.609375 "/>
<path style="fill:none;stroke-width:1.2;stroke-linecap:butt;stroke-linejoin:miter;stroke:rgb(0%,0%,0%);stroke-opacity:1;stroke-miterlimit:10;" d="M 96.734375 194.742188 L 111.324219 202.261719 "/>
<path style="fill:none;stroke-width:1.2;stroke-linecap:butt;stroke-linejoin:miter;stroke:rgb(0%,0%,0%);stroke-opacity:1;stroke-miterlimit:10;" d="M 111.324219 202.261719 L 125.128906 193.386719 "/>
<path style="fill:none;stroke-width:1.2;stroke-linecap:butt;stroke-linejoin:miter;stroke:rgb(0%,0%,0%);stroke-opacity:1;stroke-miterlimit:10;" d="M 110.617188 198.125 L 121.660156 191.027344 "/>
<path style="fill:none;stroke-width:1.2;stroke-linecap:butt;stroke-linejoin:miter;stroke:rgb(0%,0%,0%);stroke-opacity:1;stroke-miterlimit:10;" d="M 125.128906 193.386719 L 139.71875 200.90625 "/>
</g>
</svg>

<svg xmlns="http://www.w3.org/2000/svg" xmlns:xlink="http://www.w3.org/1999/xlink" width="300pt" height="300pt" viewBox="0 0 300 300"><defs><symbol overflow="visible"><path d="M.453 1.594v-7.938h4.5v7.938zm.5-.5h3.5v-6.938h-3.5zm0 0"/></symbol><symbol overflow="visible" id="a"><path d="M3.547-5.953c-.65 0-1.164.242-1.547.72-.375.48-.563 1.13-.563 1.952 0 .835.188 1.49.563 1.967.383.48.898.72 1.547.72.644 0 1.156-.24 1.53-.72.376-.476.564-1.132.564-1.968 0-.822-.187-1.474-.562-1.954-.375-.477-.887-.72-1.53-.72zm0-.734c.914 0 1.648.312 2.203.937.55.617.828 1.438.828 2.47 0 1.042-.277 1.87-.828 2.483-.555.617-1.29.922-2.203.922-.93 0-1.668-.305-2.22-.922C.774-1.41.5-2.237.5-3.28c0-1.033.273-1.853.828-2.47.55-.625 1.29-.938 2.22-.938zm0 0"/></symbol><symbol overflow="visible" id="b"><path d="M.89-6.563H2.08l2.906 5.485v-5.484h.86V0H4.656L1.75-5.484V0H.89zm0 0"/></symbol><symbol overflow="visible" id="c"><path d="M.89-6.563h.876v2.688H5v-2.688h.89V0H5v-3.125H1.766V0H.89zm0 0"/></symbol></defs><g><path fill="#fff" d="M0 0h300v300H0z"/><path d="M207.96 140.137l7.298 3.76" stroke-width="1.2" stroke="#f00" stroke-miterlimit="10" fill="none"/><path d="M215.258 143.898l7.293 3.758" stroke-width="1.2" stroke="#000" stroke-miterlimit="10" fill="none"/><path d="M207.96 140.137l-6.9 4.437" stroke-width="1.2" stroke="#f00" stroke-miterlimit="10" fill="none"/><path d="M201.06 144.574l-6.904 4.438" stroke-width="1.2" stroke="#000" stroke-miterlimit="10" fill="none"/><path d="M203.96 134.637h8v11h-8zm0 0" fill="#fff"/><use xlink:href="#a" x="203.961" y="143.3" fill="#f00"/><path d="M222.55 147.656l13.805-8.875M236.355 138.78l7.293 3.763" stroke-width="1.2" stroke="#000" stroke-miterlimit="10" fill="none"/><path d="M243.648 142.543l7.297 3.758" stroke-width="1.2" stroke="#00f" stroke-miterlimit="10" fill="none"/><path d="M239.586 136.102l5.832 3.007" stroke-width="1.2" stroke="#000" stroke-miterlimit="10" fill="none"/><path d="M245.418 139.11l5.836 3.007" stroke-width="1.2" stroke="#00f" stroke-miterlimit="10" fill="none"/><path d="M235.574 122.39l.78 16.39" stroke-width="1.2" stroke="#000" stroke-miterlimit="10" fill="none"/><path d="M250.945 146.3l6.903-4.437" stroke-width="1.2" stroke="#00f" stroke-miterlimit="10" fill="none"/><path d="M257.848 141.863l6.902-4.437" stroke-width="1.2" stroke="#000" stroke-miterlimit="10" fill="none"/><path d="M247.945 140.8h7v11h-7zm0 0" fill="#fff"/><use xlink:href="#b" x="247.945" y="149.464" fill="#00f"/><path d="M264.75 137.426l-.78-16.395M260.816 135.973l-.628-13.118M263.97 121.03l-14.59-7.514M249.38 113.516l-13.806 8.875M250.086 117.652l-11.043 7.098M194.156 149.012l-14.59-7.516M190.93 151.695l-11.672-6.015M194.94 165.406l-.784-16.394M179.566 141.496l-13.804 8.875M165.762 150.37l.785 16.392M169.7 151.824l.624 13.113M166.547 166.762l14.586 7.52M166.547 166.762l-13.81 8.875M181.133 174.28l13.808-8.874M180.426 170.145l11.047-7.098M150.813 175.73l.39 8.196" stroke-width="1.2" stroke="#000" stroke-miterlimit="10" fill="none"/><path d="M151.203 183.926l.39 8.195" stroke-width="1.2" stroke="#f00" stroke-miterlimit="10" fill="none"/><path d="M154.668 175.547l.39 8.195" stroke-width="1.2" stroke="#000" stroke-miterlimit="10" fill="none"/><path d="M155.06 183.742l.393 8.196" stroke-width="1.2" stroke="#f00" stroke-miterlimit="10" fill="none"/><path d="M152.738 175.637l-7.293-3.758" stroke-width="1.2" stroke="#000" stroke-miterlimit="10" fill="none"/><path d="M145.445 171.88l-7.293-3.763" stroke-width="1.2" stroke="#00f" stroke-miterlimit="10" fill="none"/><path d="M149.523 186.53h8v11h-8zm0 0" fill="#fff"/><use xlink:href="#a" x="149.523" y="195.194" fill="#f00"/><path d="M138.152 168.117l-6.902 4.438" stroke-width="1.2" stroke="#00f" stroke-miterlimit="10" fill="none"/><path d="M131.25 172.555l-6.902 4.437" stroke-width="1.2" stroke="#000" stroke-miterlimit="10" fill="none"/><path d="M131.152 162.617h14v11h-14zm0 0" fill="#fff"/><g fill="#00f"><use xlink:href="#b" x="131.152" y="171.28"/><use xlink:href="#c" x="138.13" y="171.28"/></g><path d="M124.348 176.992l-14.59-7.52M121.117 179.672l-11.668-6.012M125.13 193.387l-.782-16.395M109.758 169.473l-13.805 8.875M95.953 178.348l-7.297-3.758" stroke-width="1.2" stroke="#000" stroke-miterlimit="10" fill="none"/><path d="M88.656 174.59l-7.293-3.758" stroke-width="1.2" stroke="#00f" stroke-miterlimit="10" fill="none"/><path d="M95.953 178.348l.78 16.394M99.887 179.805l.63 13.113" stroke-width="1.2" stroke="#000" stroke-miterlimit="10" fill="none"/><path d="M81.363 170.832l-.39-8.2" stroke-width="1.2" stroke="#00f" stroke-miterlimit="10" fill="none"/><path d="M80.973 162.633l-.39-8.196" stroke-width="1.2" stroke="#000" stroke-miterlimit="10" fill="none"/><path d="M74.363 165.332h14v11h-14zm0 0" fill="#fff"/><g fill="#00f"><use xlink:href="#b" x="74.363" y="173.995"/><use xlink:href="#c" x="81.341" y="173.995"/></g><path d="M81.625 156.063l6.902-4.438" stroke-width="1.2" stroke="#000" stroke-miterlimit="10" fill="none"/><path d="M88.527 151.625l6.903-4.438" stroke-width="1.2" stroke="#f00" stroke-miterlimit="10" fill="none"/><path d="M79.535 152.813l6.906-4.438" stroke-width="1.2" stroke="#000" stroke-miterlimit="10" fill="none"/><path d="M86.44 148.375l6.904-4.438" stroke-width="1.2" stroke="#f00" stroke-miterlimit="10" fill="none"/><path d="M80.582 154.438l-14.59-7.52" stroke-width="1.2" stroke="#000" stroke-miterlimit="10" fill="none"/><path d="M90.387 140.063h8v11h-8zm0 0" fill="#fff"/><use xlink:href="#a" x="90.387" y="148.726" fill="#f00"/><path d="M65.992 146.918l-.78-16.39M62.06 145.465l-.63-13.117M52.188 155.793l13.804-8.875M65.21 130.527l-14.59-7.52M50.62 123.008l-.39-8.2" stroke-width="1.2" stroke="#000" stroke-miterlimit="10" fill="none"/><path d="M50.23 114.81l-.39-8.197" stroke-width="1.2" stroke="#00f" stroke-miterlimit="10" fill="none"/><path d="M50.62 123.008l-13.804 8.875M51.328 127.145l-11.043 7.097" stroke-width="1.2" stroke="#000" stroke-miterlimit="10" fill="none"/><path d="M49.84 106.613l6.902-4.437" stroke-width="1.2" stroke="#00f" stroke-miterlimit="10" fill="none"/><path d="M56.742 102.176l6.903-4.438" stroke-width="1.2" stroke="#000" stroke-miterlimit="10" fill="none"/><path d="M49.84 106.613l-7.297-3.758" stroke-width="1.2" stroke="#00f" stroke-miterlimit="10" fill="none"/><path d="M42.543 102.855l-7.293-3.76" stroke-width="1.2" stroke="#000" stroke-miterlimit="10" fill="none"/><path d="M46.84 101.113h7v11h-7zm0 0" fill="#fff"/><use xlink:href="#b" x="46.84" y="109.776" fill="#00f"/><path d="M36.816 131.883l.782 16.39M37.598 148.273l14.59 7.52M40.828 145.594l11.668 6.015M96.734 194.742l14.59 7.52M111.324 202.262l13.805-8.875M110.617 198.125l11.043-7.098M125.13 193.387l14.59 7.52" stroke-width="1.2" stroke="#000" stroke-miterlimit="10" fill="none"/></g></svg>
